X:321
T:Hessian
S:Bruce & Emmett's Drummers and Fifers Guide (1862), p. 32
M:2/4
L:1/16
Q:Allegro
K:G
%%MIDI program 72
%%MIDI transpose 8
%%MIDI ratio 3 1
dc|B2e2 d>ed>^c|B2e2 d3c|B2e2 d>ed>^c|B2e2 d3e|
d>cB>A G>FG>A|B2e2 d3e|d>cB>A G>FG>A|B2A2 G3 e|
d>cB>A G>FG>A|B2e2 d3e|d>cB>A G>FG>A|B2A2 G2|:D2|
G>BA>G F>EF>D|G>BA>c B2AB|(3ccc cA (3BBB BG|d2D2 G2::AB|
c>dc>A B2Bc|d3e (3(dcB) A2AB|(3(cde) cA (3(Bcd) BG|d2D2 G2:||
